images/3234386.svg

<?xml version="1.0" encoding="UTF-8"?>
<svg xmlns="http://www.w3.org/2000/svg" xmlns:xlink="http://www.w3.org/1999/xlink" width="300pt" height="300pt" viewBox="0 0 300 300" version="1.1">
<defs>
<g>
<symbol overflow="visible" id="glyph0-0">
<path style="stroke:none;" d="M 0.75 2.65625 L 0.75 -10.578125 L 8.25 -10.578125 L 8.25 2.65625 Z M 1.59375 1.8125 L 7.40625 1.8125 L 7.40625 -9.734375 L 1.59375 -9.734375 Z M 1.59375 1.8125 "/>
</symbol>
<symbol overflow="visible" id="glyph0-1">
<path style="stroke:none;" d="M 1.46875 -10.9375 L 3.46875 -10.9375 L 8.3125 -1.78125 L 8.3125 -10.9375 L 9.75 -10.9375 L 9.75 0 L 7.75 0 L 2.90625 -9.140625 L 2.90625 0 L 1.46875 0 Z M 1.46875 -10.9375 "/>
</symbol>
<symbol overflow="visible" id="glyph0-2">
<path style="stroke:none;" d="M 1.46875 -10.9375 L 2.953125 -10.9375 L 2.953125 -6.453125 L 8.328125 -6.453125 L 8.328125 -10.9375 L 9.8125 -10.9375 L 9.8125 0 L 8.328125 0 L 8.328125 -5.203125 L 2.953125 -5.203125 L 2.953125 0 L 1.46875 0 Z M 1.46875 -10.9375 "/>
</symbol>
</g>
</defs>
<g id="surface30553">
<rect x="0" y="0" width="300" height="300" style="fill:rgb(100%,100%,100%);fill-opacity:1;stroke:none;"/>
<path style="fill:none;stroke-width:1.2;stroke-linecap:butt;stroke-linejoin:miter;stroke:rgb(0%,0%,0%);stroke-opacity:1;stroke-miterlimit:10;" d="M 88.917969 180.984375 L 53.140625 180.984375 "/>
<path style="fill:none;stroke-width:1.2;stroke-linecap:butt;stroke-linejoin:miter;stroke:rgb(0%,0%,0%);stroke-opacity:1;stroke-miterlimit:10;" d="M 106.808594 150 L 88.917969 180.984375 "/>
<path style="fill:none;stroke-width:1.2;stroke-linecap:butt;stroke-linejoin:miter;stroke:rgb(0%,0%,0%);stroke-opacity:1;stroke-miterlimit:10;" d="M 53.140625 180.984375 L 44.195312 165.492188 "/>
<path style="fill:none;stroke-width:1.2;stroke-linecap:butt;stroke-linejoin:miter;stroke:rgb(0%,0%,100%);stroke-opacity:1;stroke-miterlimit:10;" d="M 44.195312 165.492188 L 35.25 150 "/>
<path style="fill:none;stroke-width:1.2;stroke-linecap:butt;stroke-linejoin:miter;stroke:rgb(0%,0%,100%);stroke-opacity:1;stroke-miterlimit:10;" d="M 35.25 150 L 44.195312 134.507812 "/>
<path style="fill:none;stroke-width:1.2;stroke-linecap:butt;stroke-linejoin:miter;stroke:rgb(0%,0%,0%);stroke-opacity:1;stroke-miterlimit:10;" d="M 44.195312 134.507812 L 53.140625 119.015625 "/>
<path style=" stroke:none;fill-rule:nonzero;fill:rgb(100%,100%,100%);fill-opacity:1;" d="M 24.25 141 L 47.25 141 L 47.25 159 L 24.25 159 Z M 24.25 141 "/>
<g style="fill:rgb(0%,0%,100%);fill-opacity:1;">
  <use xlink:href="#glyph0-1" x="24.25" y="154.614258"/>
  <use xlink:href="#glyph0-2" x="35.225586" y="154.614258"/>
</g>
<path style="fill:none;stroke-width:1.2;stroke-linecap:butt;stroke-linejoin:miter;stroke:rgb(0%,0%,0%);stroke-opacity:1;stroke-miterlimit:10;" d="M 53.140625 119.015625 L 88.917969 119.015625 "/>
<path style="fill:none;stroke-width:1.2;stroke-linecap:butt;stroke-linejoin:miter;stroke:rgb(0%,0%,0%);stroke-opacity:1;stroke-miterlimit:10;" d="M 88.917969 119.015625 L 106.808594 150 "/>
<path style="fill:none;stroke-width:1.2;stroke-linecap:butt;stroke-linejoin:miter;stroke:rgb(0%,0%,0%);stroke-opacity:1;stroke-miterlimit:10;" d="M 106.808594 150 L 132.109375 175.300781 "/>
<path style="fill:none;stroke-width:1.2;stroke-linecap:butt;stroke-linejoin:miter;stroke:rgb(0%,0%,0%);stroke-opacity:1;stroke-miterlimit:10;" d="M 132.109375 124.699219 L 106.808594 150 "/>
<path style="fill:none;stroke-width:1.2;stroke-linecap:butt;stroke-linejoin:miter;stroke:rgb(0%,0%,0%);stroke-opacity:1;stroke-miterlimit:10;" d="M 132.109375 175.300781 L 144.761719 162.648438 "/>
<path style="fill:none;stroke-width:1.2;stroke-linecap:butt;stroke-linejoin:miter;stroke:rgb(0%,0%,100%);stroke-opacity:1;stroke-miterlimit:10;" d="M 144.761719 162.648438 L 157.410156 150 "/>
<path style="fill:none;stroke-width:1.2;stroke-linecap:butt;stroke-linejoin:miter;stroke:rgb(0%,0%,100%);stroke-opacity:1;stroke-miterlimit:10;" d="M 157.410156 150 L 144.761719 137.351562 "/>
<path style="fill:none;stroke-width:1.2;stroke-linecap:butt;stroke-linejoin:miter;stroke:rgb(0%,0%,0%);stroke-opacity:1;stroke-miterlimit:10;" d="M 144.761719 137.351562 L 132.109375 124.699219 "/>
<path style="fill:none;stroke-width:1.2;stroke-linecap:butt;stroke-linejoin:miter;stroke:rgb(0%,0%,100%);stroke-opacity:1;stroke-miterlimit:10;" d="M 157.410156 150 L 175.300781 150 "/>
<path style="fill:none;stroke-width:1.2;stroke-linecap:butt;stroke-linejoin:miter;stroke:rgb(0%,0%,0%);stroke-opacity:1;stroke-miterlimit:10;" d="M 175.300781 150 L 193.191406 150 "/>
<path style=" stroke:none;fill-rule:nonzero;fill:rgb(100%,100%,100%);fill-opacity:1;" d="M 152.410156 141 L 163.410156 141 L 163.410156 159 L 152.410156 159 Z M 152.410156 141 "/>
<g style="fill:rgb(0%,0%,100%);fill-opacity:1;">
  <use xlink:href="#glyph0-1" x="152.410156" y="154.614258"/>
</g>
<path style="fill:none;stroke-width:1.2;stroke-linecap:butt;stroke-linejoin:miter;stroke:rgb(0%,0%,0%);stroke-opacity:1;stroke-miterlimit:10;" d="M 193.191406 150 L 211.082031 180.984375 "/>
<path style="fill:none;stroke-width:1.2;stroke-linecap:butt;stroke-linejoin:miter;stroke:rgb(0%,0%,0%);stroke-opacity:1;stroke-miterlimit:10;" d="M 193.191406 150 L 211.082031 119.015625 "/>
<path style="fill:none;stroke-width:1.2;stroke-linecap:butt;stroke-linejoin:miter;stroke:rgb(0%,0%,0%);stroke-opacity:1;stroke-miterlimit:10;" d="M 211.082031 180.984375 L 193.191406 211.972656 "/>
<path style="fill:none;stroke-width:1.2;stroke-linecap:butt;stroke-linejoin:miter;stroke:rgb(0%,0%,0%);stroke-opacity:1;stroke-miterlimit:10;" d="M 216.582031 188.292969 L 202.269531 213.082031 "/>
<path style="fill:none;stroke-width:1.2;stroke-linecap:butt;stroke-linejoin:miter;stroke:rgb(0%,0%,0%);stroke-opacity:1;stroke-miterlimit:10;" d="M 246.859375 180.984375 L 211.082031 180.984375 "/>
<path style="fill:none;stroke-width:1.2;stroke-linecap:butt;stroke-linejoin:miter;stroke:rgb(0%,0%,0%);stroke-opacity:1;stroke-miterlimit:10;" d="M 193.191406 211.972656 L 211.082031 242.957031 "/>
<path style="fill:none;stroke-width:1.2;stroke-linecap:butt;stroke-linejoin:miter;stroke:rgb(0%,0%,0%);stroke-opacity:1;stroke-miterlimit:10;" d="M 211.082031 242.957031 L 246.859375 242.957031 "/>
<path style="fill:none;stroke-width:1.2;stroke-linecap:butt;stroke-linejoin:miter;stroke:rgb(0%,0%,0%);stroke-opacity:1;stroke-miterlimit:10;" d="M 214.65625 234.539062 L 243.28125 234.539062 "/>
<path style="fill:none;stroke-width:1.2;stroke-linecap:butt;stroke-linejoin:miter;stroke:rgb(0%,0%,0%);stroke-opacity:1;stroke-miterlimit:10;" d="M 246.859375 242.957031 L 264.75 211.972656 "/>
<path style="fill:none;stroke-width:1.2;stroke-linecap:butt;stroke-linejoin:miter;stroke:rgb(0%,0%,0%);stroke-opacity:1;stroke-miterlimit:10;" d="M 264.75 211.972656 L 246.859375 180.984375 "/>
<path style="fill:none;stroke-width:1.2;stroke-linecap:butt;stroke-linejoin:miter;stroke:rgb(0%,0%,0%);stroke-opacity:1;stroke-miterlimit:10;" d="M 255.671875 213.082031 L 241.359375 188.292969 "/>
<path style="fill:none;stroke-width:1.2;stroke-linecap:butt;stroke-linejoin:miter;stroke:rgb(0%,0%,0%);stroke-opacity:1;stroke-miterlimit:10;" d="M 211.082031 119.015625 L 246.859375 119.015625 "/>
<path style="fill:none;stroke-width:1.2;stroke-linecap:butt;stroke-linejoin:miter;stroke:rgb(0%,0%,0%);stroke-opacity:1;stroke-miterlimit:10;" d="M 214.65625 110.59375 L 243.28125 110.59375 "/>
<path style="fill:none;stroke-width:1.2;stroke-linecap:butt;stroke-linejoin:miter;stroke:rgb(0%,0%,0%);stroke-opacity:1;stroke-miterlimit:10;" d="M 193.191406 88.027344 L 211.082031 119.015625 "/>
<path style="fill:none;stroke-width:1.2;stroke-linecap:butt;stroke-linejoin:miter;stroke:rgb(0%,0%,0%);stroke-opacity:1;stroke-miterlimit:10;" d="M 246.859375 119.015625 L 264.75 88.027344 "/>
<path style="fill:none;stroke-width:1.2;stroke-linecap:butt;stroke-linejoin:miter;stroke:rgb(0%,0%,0%);stroke-opacity:1;stroke-miterlimit:10;" d="M 264.75 88.027344 L 246.859375 57.042969 "/>
<path style="fill:none;stroke-width:1.2;stroke-linecap:butt;stroke-linejoin:miter;stroke:rgb(0%,0%,0%);stroke-opacity:1;stroke-miterlimit:10;" d="M 255.671875 89.136719 L 241.359375 64.347656 "/>
<path style="fill:none;stroke-width:1.2;stroke-linecap:butt;stroke-linejoin:miter;stroke:rgb(0%,0%,0%);stroke-opacity:1;stroke-miterlimit:10;" d="M 246.859375 57.042969 L 211.082031 57.042969 "/>
<path style="fill:none;stroke-width:1.2;stroke-linecap:butt;stroke-linejoin:miter;stroke:rgb(0%,0%,0%);stroke-opacity:1;stroke-miterlimit:10;" d="M 211.082031 57.042969 L 193.191406 88.027344 "/>
<path style="fill:none;stroke-width:1.2;stroke-linecap:butt;stroke-linejoin:miter;stroke:rgb(0%,0%,0%);stroke-opacity:1;stroke-miterlimit:10;" d="M 216.582031 64.347656 L 202.269531 89.136719 "/>
</g>
</svg>

<svg xmlns="http://www.w3.org/2000/svg" xmlns:xlink="http://www.w3.org/1999/xlink" width="300pt" height="300pt" viewBox="0 0 300 300"><defs><symbol overflow="visible"><path d="M.75 2.656v-13.234h7.5V2.656zm.844-.844h5.812V-9.733H1.594zm0 0"/></symbol><symbol overflow="visible" id="a"><path d="M1.47-10.938h2L8.31-1.78v-9.158H9.75V0h-2L2.906-9.14V0H1.47zm0 0"/></symbol><symbol overflow="visible" id="b"><path d="M1.47-10.938h1.483v4.485h5.375v-4.484h1.485V0H8.328v-5.203H2.953V0H1.47zm0 0"/></symbol></defs><g><path fill="#fff" d="M0 0h300v300H0z"/><path d="M88.918 180.984H53.14M106.81 150l-17.892 30.984M53.14 180.984l-8.945-15.492" stroke-width="1.2" stroke="#000" stroke-miterlimit="10" fill="none"/><path d="M44.195 165.492L35.25 150M35.25 150l8.945-15.492" stroke-width="1.2" stroke="#00f" stroke-miterlimit="10" fill="none"/><path d="M44.195 134.508l8.946-15.492" stroke-width="1.2" stroke="#000" stroke-miterlimit="10" fill="none"/><path d="M24.25 141h23v18h-23zm0 0" fill="#fff"/><g fill="#00f"><use xlink:href="#a" x="24.25" y="154.614"/><use xlink:href="#b" x="35.226" y="154.614"/></g><path d="M53.14 119.016H88.92M88.918 119.016L106.808 150M106.81 150l25.3 25.3M132.11 124.7l-25.3 25.3M132.11 175.3l12.652-12.652" stroke-width="1.2" stroke="#000" stroke-miterlimit="10" fill="none"/><path d="M144.762 162.648L157.41 150M157.41 150l-12.648-12.648" stroke-width="1.2" stroke="#00f" stroke-miterlimit="10" fill="none"/><path d="M144.762 137.352L132.11 124.7" stroke-width="1.2" stroke="#000" stroke-miterlimit="10" fill="none"/><path d="M157.41 150h17.89" stroke-width="1.2" stroke="#00f" stroke-miterlimit="10" fill="none"/><path d="M175.3 150h17.89" stroke-width="1.2" stroke="#000" stroke-miterlimit="10" fill="none"/><path d="M152.41 141h11v18h-11zm0 0" fill="#fff"/><use xlink:href="#a" x="152.41" y="154.614" fill="#00f"/><path d="M193.19 150l17.892 30.984M193.19 150l17.892-30.984M211.082 180.984l-17.89 30.99M216.582 188.293l-14.312 24.79M246.86 180.984H211.08M193.19 211.973l17.892 30.984M211.082 242.957h35.777M214.656 234.54h28.625M246.86 242.957l17.89-30.984M264.75 211.973l-17.89-30.99M255.672 213.082l-14.313-24.79M211.082 119.016h35.777M214.656 110.594h28.625M193.19 88.027l17.892 30.99M246.86 119.016l17.89-30.99M264.75 88.027l-17.89-30.984M255.672 89.137l-14.313-24.79M246.86 57.043H211.08M211.082 57.043l-17.89 30.984M216.582 64.348l-14.312 24.79" stroke-width="1.2" stroke="#000" stroke-miterlimit="10" fill="none"/></g></svg>
